X:9
T:Polska från Västergötland
T:Svenska Folkdansar H4 nr 9
O:Västergötland
B:Traditioner av Svenska Folkdansar Häfte 4, nr 9
R:Polska
Z:Nils L
U:w=wedge
U:t=tenuto
L:1/8
M:3/4
K:F
F2 F>G A>B | c2 c>A F2 | d2 d>B f>d | c4 F2 |
B2 d>B G>B | A2 c>A F>A | G2 B>G E>G | (G4 F2) :|

